kiosk-igrinskij/images/fd202075d08c90e35065afef48f192af.svg

<svg fill="none" height="16" viewBox="0 0 16 16" width="16" xmlns="http://www.w3.org/2000/svg"><g fill="#f1e9dd"><path clip-rule="evenodd" d="m4.71529 1.63201c-.89485 0-1.42946.76647-1.42946 2.26786 0 .10429.0485.20254.1308.26587.03201.02463.06771.04292.10525.0545.03191.00987.06511.01491.09847.01491.02876 0 .05751-.00368.086-.01104.55164-.14686 1.15212-.26453 1.78379-.34969.16623-.02213.29004-.1643.29004-.33228-.00033-1.78938-.35829-1.91013-1.06489-1.91013zm-.74468 1.83568c.08621-1.16513.50488-1.16513.74387-1.16513.00537 0 .0121-.00109.01839-.00295.01172-.00346.02485-.00956.03901-.01613.11773-.05453.30702-.14225.3355.96863-.39274.05998-.77311.13176-1.13677.21558z" fill-rule="evenodd"/><path clip-rule="evenodd" d="m12.0899 3.48178c2.484.58405 3.9088 1.61165 3.9088 2.81965 0 .01516.0002.03677.0005.06249.0011.1207.0031.33171-.0112.38746l-.916 3.54152c-.0134.052-.0498.0942-.0994.1144-1.9182.7772-4.4015 1.3468-6.84331 1.2854-2.5549.0614-5.18005-.5743-7.138427-1.4159-.021213-.009-.039822-.0221-.055121-.0384-.019477-.0206-.033583-.0462-.040907-.0745l-.8828087-3.41216c-.01437707-.05587-.0123697-.26709-.01123038-.38765l.00037977-.04126.00010851-.02104c0-.76609.5687368-1.42157 1.7359358-1.9996.05453-.02717.09131-.08214.09299-.14316.06929-2.53403.97857-4.15903 2.88508-4.15903 1.3208 0 2.37461.683521 2.50949 2.89269.00564.08987.07926.15923.16894.15658 1.63953-.04796 3.29488.1029 4.69618.43251zm-2.63011 6.02859c.49913 0 1.47761-.11096 1.97751-.35004.1137-.05429.1816-.17267.1816-.29873 0-1.43163-.1268-2.10861-1.0645-2.10861-.89458 0-1.42913 1.00299-1.42913 2.42211 0 .18539.14952.33527.33452.33527zm3.59031-1.59023c.0097.11132.1221.18575.2265.14618 1.2819-.4875 2.0533-1.1396 2.0533-1.76456 0-.83182-1.3318-1.68242-3.3925-2.1669-1.1806-.27728-2.5419-.42414-3.93762-.42414-.36056 0-.72292.00976-1.07616.02919-.04552.00283-.09066-.00406-.13282-.01949-.04248-.01556-.08186-.03976-.11545-.0714-.06689-.06368-.10471-.15187-.10471-.24371v-.02986c0-1.99925-.84971-2.704901-1.85535-2.704901-1.46429 0-2.24407 1.559271-2.21966 3.909571.00065.0684-.04112.1301-.10368.15724-1.14214.4962-1.721886 1.02291-1.721886 1.5644 0 1.17784 2.782706 2.48542 6.835636 2.58499.09033.00235.16829-.07175.17296-.16193.13921-2.21657 1.35226-3.80043 2.87604-3.80043 1.2616 0 2.3094 1.05327 2.4954 2.99575z" fill-rule="evenodd"/><path d="m14.549 11.2796c-1.8918.6743-4.1841 1.1373-6.42015 1.0833-2.34781.0563-4.75953-.461-6.70288-1.1939-.12711-.048-.2539.066-.21978.1978l.45079 1.7422c1.13173 1.1509 3.59808 1.9498 6.34302 1.9498 2.7454 0 5.2121-.7992 6.3436-1.9504l.4216-1.63c.0337-.1304-.0898-.2437-.2162-.1988z"/></g></svg>

<svg width="16" height="16" viewBox="0 0 16 16" fill="none" xmlns="http://www.w3.org/2000/svg">
<path fill-rule="evenodd" clip-rule="evenodd" d="M4.71529 1.63201C3.82044 1.63201 3.28583 2.39848 3.28583 3.89987C3.28583 4.00416 3.33433 4.10241 3.41663 4.16574C3.44864 4.19037 3.48434 4.20866 3.52188 4.22024C3.55379 4.23011 3.58699 4.23515 3.62035 4.23515C3.64911 4.23515 3.67786 4.23147 3.70635 4.22411C4.25799 4.07725 4.85847 3.95958 5.49014 3.87442C5.65637 3.85229 5.78018 3.71012 5.78018 3.54214C5.77985 1.75276 5.42189 1.63201 4.71529 1.63201ZM3.97061 3.46769C4.05682 2.30256 4.47549 2.30256 4.71448 2.30256C4.71985 2.30256 4.72658 2.30147 4.73287 2.29961C4.74459 2.29615 4.75772 2.29005 4.77188 2.28348C4.88961 2.22895 5.0789 2.14123 5.10738 3.25211C4.71464 3.31209 4.33427 3.38387 3.97061 3.46769Z" fill="#F1E9DD"/>
<path fill-rule="evenodd" clip-rule="evenodd" d="M12.0899 3.48178C14.5739 4.06583 15.9987 5.09343 15.9987 6.30143C15.9987 6.31659 15.9989 6.3382 15.9992 6.36392C16.0003 6.48462 16.0023 6.69563 15.988 6.75138L15.072 10.2929C15.0586 10.3449 15.0222 10.3871 14.9726 10.4073C13.0544 11.1845 10.5711 11.7541 8.12929 11.6927C5.57439 11.7541 2.94924 11.1184 0.990863 10.2768C0.96965 10.2678 0.951041 10.2547 0.935742 10.2384C0.916265 10.2178 0.902159 10.1922 0.894835 10.1639L0.0120263 6.75174C-0.00235077 6.69587 -0.000343399 6.48465 0.000795919 6.36409L0.00117569 6.32283L0.0012842 6.30179C0.0012842 5.5357 0.570021 4.88022 1.73722 4.30219C1.79175 4.27502 1.82853 4.22005 1.83021 4.15903C1.8995 1.625 2.80878 0 4.71529 0C6.03609 0 7.0899 0.683521 7.22478 2.89269C7.23042 2.98256 7.30404 3.05192 7.39372 3.04927C9.03325 3.00131 10.6886 3.15217 12.0899 3.48178ZM9.45979 9.51037C9.95892 9.51037 10.9374 9.39941 11.4373 9.16033C11.551 9.10604 11.6189 8.98766 11.6189 8.8616C11.6189 7.42997 11.4921 6.75299 10.5544 6.75299C9.65982 6.75299 9.12527 7.75598 9.12527 9.1751C9.12527 9.36049 9.27479 9.51037 9.45979 9.51037ZM13.0501 7.92014C13.0598 8.03146 13.1722 8.10589 13.2766 8.06632C14.5585 7.57882 15.3299 6.92672 15.3299 6.30176C15.3299 5.46994 13.9981 4.61934 11.9374 4.13486C10.7568 3.85758 9.3955 3.71072 7.99978 3.71072C7.63922 3.71072 7.27686 3.72048 6.92362 3.73991C6.8781 3.74274 6.83296 3.73585 6.7908 3.72042C6.74832 3.70486 6.70894 3.68066 6.67535 3.64902C6.60846 3.58534 6.57064 3.49715 6.57064 3.40531V3.37545C6.57064 1.3762 5.72093 0.670549 4.71529 0.670549C3.251 0.670549 2.47122 2.22982 2.49563 4.58012C2.49628 4.64852 2.45451 4.71022 2.39195 4.73736C1.24981 5.23356 0.670064 5.76027 0.670064 6.30176C0.670064 7.4796 3.45277 8.78718 7.5057 8.88675C7.59603 8.8891 7.67399 8.815 7.67866 8.72482C7.81787 6.50825 9.03092 4.92439 10.5547 4.92439C11.8163 4.92439 12.8641 5.97766 13.0501 7.92014Z" fill="#F1E9DD"/>
<path d="M14.549 11.2796C12.6572 11.9539 10.3649 12.4169 8.12885 12.3629C5.78104 12.4192 3.36932 11.9019 1.42597 11.169C1.29886 11.121 1.17207 11.235 1.20619 11.3668L1.65698 13.109C2.78871 14.2599 5.25506 15.0588 8 15.0588C10.7454 15.0588 13.2121 14.2596 14.3436 13.1084L14.7652 11.4784C14.7989 11.348 14.6754 11.2347 14.549 11.2796Z" fill="#F1E9DD"/>
</svg>
